!!!!SEGMENT: mpm330-Japan.krn
!!!OTL: Japan
!!!OTL2:National Hymn
!!!ONB: National
**kern	**kern	**dynam
*part1	*part1	*part1
*staff2	*staff1	*
*clefF4	*clefG2	*
*k[f#]	*k[f#]	*
*G:	*G:	*
*M4/4	*M4/4	*
=1	=1	=1
!	!LO:TX:a:B:t=Largo	!
4E^	4e^	f
4D^	4d^	.
(4E	(4e	.
4F#)	4f#)	.
=2	=2	=2
(4A	(4a	.
4F#)	4f#)	.
2E	2e	.
=3	=3	=3
*	*^	*
4D^ 4A	4d^ 4f#	4ryy	.
4F#^	4d^ 4a	4ryy	.
(4G	4d 4b	4ryy	.
4F#)	(8aL	4d	.
.	8bJ)	.	.
*	*v	*v	*
=4	=4	=4
4G#X 4B	4e 4ee	.
4A	4e 4a 4cc#X	.
(8EL	(4d 4g#X 4b	.
8E#XJ	.	.
4F#)	4c#X) 4f# 4a	.
=5	=5	=5
4D 4A	4d 4f#	.
4F#	4d 4a	.
4D 4G	2d 2b	.
4GG 4G	.	.
=6	=6	=6
4E	4g 4b 4ee	.
4B	4f# 4b 4dd	.
2E	2g 2b 2ee	.
=7	=7	=7
4BB 4B	4dd 4ff#	.
4AA 4A	4dd 4ff# 4aa	.
4GG 4G	4dd 4gg 4bb	.
4FF# 4F#	4dd 4aa	.
=8	=8	=8
4DD 4D	4.a 4.dd 4.ff#	.
4FF# 4F#	.	.
.	8a 8dd 8aa	.
4AA 4A	2a 2cc#X 2ee	.
4AA 4A	.	.
=9	=9	=9
4GG 4G	4d 4b	.
4FF# 4F#	4f# 4b 4dd	.
2GG 2G	2e 2b 2ee	.
=10	=10	=10
(4BB 4B	(4f# 4b 4dd	.
4GG) 4G	4g) 4b 4ee	.
(4BB 4B	(4b	.
4AA) 4A	4a)	.
=11	=11	=11
(4BB 4B	(4b	.
8AAL 8A	8aL	.
8FF#J) 8F#	8f#J)	.
2EE; 2E	2e;	.
==	==	==
*-	*-	*-
!!!system-decoration: {(s1,s2)}
!!!ENC: Yukiko Yoden
!!!END: 2022/04/04